X:57
T:The Cock-fight
T:(The Bonny Grey)
M:4/4
L:1/4
Q:120
S:sung by J. Collinson, Casterton, Lancs. (C.J.S. 1905)
A:Cumbria
Z:Allison Vere McGurk
K:DMin
C|FFAF|GGdd|c A/2A/2 AG|FEDC|FGAF|GBAd|cAA B/2A/2|FGD
C/2C/2|F F/2F/2A F/2F/2|GBAd|cBA A/2G/2|F/2G-G/2D||
